!!! OTL: Berkowitz484
!!! Chapter: 1
!!! Section: IV
!!! Page: 120
!!! Mode: 
!!! Encoder: DJB
**kern
*staff1
*I"Piano
=1-
*clefF4
*k[f#c#g#d#]
*c#:
*M4/4
4.C#/
8G#\
8r
4C#/
8D#\
=2
8.C#/L
16BB#/Jk
[4A\
4A\]
12GG#/L
12BB#/
12D#/J
=3
[4F#\
12F#\L]
12E\
12D#\J
12E\L
12D#\
12C#\J
8F#\L
8F##\J
=4
4.G#\
16B\LL
16A\JJ
4G#\
4r
=5
4.E\
8B\
8r
4E\
8F#\
=6
8.E\L
16D#\Jk
[4cn\
4c\]
12B\L
12A\
12G#\J
=7
!!linebreak:original
8F#\L
8E#\
8F#\
8A\J
4c#\
8.BB\L
16G#\Jk
=8
2F#\
4E\
4r
=9
8r
[8E#\
12E#\L]
12C#\
12E#\J
12G#\L
12B\
12A\J
8G#\L
8F#\J
=10
8r
[8F#\
16F#\LL]
16D#\
16F#\
16A\JJ
8c#\L
16B#\L
16A#\JJ
8.B#\L
16B#\Jk
=11
4.c#\
8F#\
8r
4G#\
8A\
=12
!!linebreak:original
8.G#\L
16F#\Jk
[4d#\
2d#\]
=13
6r
6GG#/
6BB#/
6D#\
6F#\
6E\
=14
2.D#\
4C#/
==
*-
